icons/fill-new-other-office-business-tie.svg

<svg xmlns="http://www.w3.org/2000/svg" width="32px" height="32px" viewBox="0 0 32 32" version="1.1">
    <title>fill-new-other-office-business-tie</title>
    <g id="fill-new-other-office-business-tie" stroke-width="1" fill-rule="evenodd">
        <path d="M8.11803399,1 L21.881966,1 C22.4342508,1 22.881966,1.44771525 22.881966,2 C22.881966,2.1552451 22.8458209,2.30835816 22.7763932,2.4472136 L19.7763932,8.4472136 C19.6070012,8.78599762 19.2607381,9 18.881966,9 L11.118034,9 C10.7392619,9 10.3929988,8.78599762 10.2236068,8.4472136 L7.2236068,2.4472136 C6.97661755,1.9532351 7.1768419,1.35256206 7.67082039,1.10557281 C7.80967583,1.03614509 7.96278889,1 8.11803399,1 Z M19.1576594,11 C19.6443871,11 20.0604211,11.3504423 20.1431195,11.8300931 L22.4041294,24.9439508 C22.4636336,25.2890751 22.3382546,25.6401793 22.0735999,25.8695468 L15.6549305,31.4323935 C15.2790676,31.7581414 14.7209324,31.7581414 14.3450695,31.4323935 L7.92640013,25.8695468 C7.66174537,25.6401793 7.53636635,25.2890751 7.59587055,24.9439508 L9.8568805,11.8300931 C9.93957891,11.3504423 10.3556129,11 10.8423406,11 L19.1576594,11 Z M22.3858149,13.071 L27.8566168,19.2708324 C28.2148194,19.6767954 28.1848913,20.2941015 27.7890972,20.6635093 L24.262,23.955 L22.3858149,13.071 Z" id="&#24418;&#29366;" />
    </g>
</svg>

<svg xmlns="http://www.w3.org/2000/svg" viewBox="0 0 32 32"><path fill="currentColor" d="M8.118 1h13.764a1 1 0 0 1 .894 1.447l-3 6a1 1 0 0 1-.894.553h-7.764a1 1 0 0 1-.894-.553l-3-6A1 1 0 0 1 8.118 1m11.04 10a1 1 0 0 1 .985.83l2.261 13.114a1 1 0 0 1-.33.926l-6.42 5.562a1 1 0 0 1-1.309 0L7.926 25.87a1 1 0 0 1-.33-.926l2.26-13.114a1 1 0 0 1 .986-.83zm3.228 2.071 5.47 6.2a1 1 0 0 1-.067 1.393l-3.527 3.291z"/></svg>
